elevator-passenger-outline.svg

<svg  viewBox="0 0 24 24" fill="currentColor"><path  d="M19 5V19H5V5H19M19 3H5C3.9 3 3 3.9 3 5V19C3 20.1 3.9 21 5 21H19C20.1 21 21 20.1 21 19V5C21 3.9 20.1 3 19 3M10 18V14H11V11.5C11 10.4 10.1 9.5 9 9.5H8C6.9 9.5 6 10.4 6 11.5V14H7V18H10M8.5 8.5C9.19 8.5 9.75 7.94 9.75 7.25S9.19 6 8.5 6 7.25 6.56 7.25 7.25 7.81 8.5 8.5 8.5M18 11L15.5 7L13 11H18M13 13L15.5 17L18 13H13Z"/></svg>

<svg fill="currentColor" viewBox="0 0 24 24"><path d="M19 5v14H5V5zm0-2H5c-1.1 0-2 .9-2 2v14c0 1.1.9 2 2 2h14c1.1 0 2-.9 2-2V5c0-1.1-.9-2-2-2m-9 15v-4h1v-2.5c0-1.1-.9-2-2-2H8c-1.1 0-2 .9-2 2V14h1v4zM8.5 8.5a1.25 1.25 0 1 0 0-2.5 1.25 1.25 0 0 0 0 2.5M18 11l-2.5-4-2.5 4zm-5 2 2.5 4 2.5-4z"/></svg>
